img/icons/success.svg

<svg width="40" height="40" viewBox="0 0 40 40" fill="none" xmlns="http://www.w3.org/2000/svg">
<path fill-rule="evenodd" clip-rule="evenodd" d="M36.6668 20C36.6668 29.2048 29.2049 36.6667 20.0002 36.6667H4.98966C3.51713 36.6667 2.77968 34.8714 3.82092 33.8215L7.08266 30.5325C4.73907 27.6617 3.3335 23.995 3.3335 20C3.3335 10.7953 10.7954 3.33334 20.0002 3.33334C29.2049 3.33334 36.6668 10.7953 36.6668 20ZM26.1787 17.8452C26.8295 17.1943 26.8295 16.139 26.1787 15.4882C25.5278 14.8373 24.4725 14.8373 23.8217 15.4882L18.3335 20.9763L16.1787 18.8215C15.5278 18.1706 14.4725 18.1706 13.8217 18.8215C13.1708 19.4724 13.1708 20.5277 13.8217 21.1785L17.155 24.5119C17.4675 24.8244 17.8915 25 18.3335 25C18.7755 25 19.1994 24.8244 19.512 24.5119L26.1787 17.8452Z" fill="#31C440"/>
</svg>

<svg width="40" height="40" viewBox="0 0 40 40" fill="none" xmlns="http://www.w3.org/2000/svg"><path fill-rule="evenodd" clip-rule="evenodd" d="M36.667 20c0 9.205-7.462 16.667-16.667 16.667H4.99c-1.473 0-2.21-1.796-1.17-2.846l3.263-3.288A16.598 16.598 0 013.333 20c0-9.205 7.462-16.667 16.667-16.667 9.205 0 16.667 7.462 16.667 16.667zm-10.488-2.155a1.667 1.667 0 00-2.357-2.357l-5.488 5.488-2.155-2.154a1.667 1.667 0 10-2.357 2.357l3.333 3.333a1.667 1.667 0 002.357 0l6.667-6.667z" fill="#31C440"/></svg>
